X: 21121
Q: "Slow"
M: 3/4
L: 1/8
K: C
"_P."c>G |\
e3 f ed | e2 (dc)(cd) | e>f eg(ed) | e2 (dc) (cG) |
a2 {d'}c'(b/a/) {a}gf/e/ | g>a (gf)(ed) | e2 A2 TB2 | {AB}c4 :|
|: c>G |\
e3 f (ed) | e2 (dc)(cd) | e>d (ef)(ed) | e2 dc c>G |
a2 (c'a)(ge) | g>a (gf)(ed) | e2 A2 TB2 | {AB}c4 :|
g2 |\
a2 c'age | g>a (gf)(ed) | ({cd}e>c) A2 TB2 | c4 H|] y8 y8 y8 y8 y8 y8 y8 y8 y8 y8



